X:21
T: Boston Boy
S: Shawn Lane (Charles Wood, "Banjology" Jake Stargel - Guitar)
S: MandoZine TablEdit Archives
Z: TablEdited by Steve Keating for MandoZine
L: 1/8
Q: 500
M: 4/4
K: C
 z6 G,B, |: "C"CB, CD EC DE | "F"FE FG A^F D^F | "G"G^F GA Bc dB | "C"cd cA GE DB, |
 CB, CD EC DE | "F"FE FG A^F D^F | "G"G^F GA Bc dB |1 "C"cE GE c2 G,B, :|2 "C"c2 [c2E2] c2 de |
 zg ed cd eg | a2 g2 g2 AB | "G"Bd BA GA Bc | "C"dc cc cc de |
 zg ed cd eg | ac' g_b ag _ba | "G"gd ^de ^d=d cA | "C"dc Ad cA ec |
 Ad cd AB cA | Bc dB cB AG | "G"EG Ac Bd cd | "C"de g2 e2 d/e/e |
 ee ed cd eg | ag gg g2 AB | "G"Bd BA GA Bd | "C"c2 [cE]c [c4E4] |
